polaris-icons/icons/new-icons/ColorNoneMinor.svg

<svg width="20" height="20" viewBox="0 0 20 20" fill="none" xmlns="http://www.w3.org/2000/svg">
<path fill-rule="evenodd" clip-rule="evenodd" d="M15.6396 5.85261C16.4947 7.01339 17 8.44769 17 10C17 10.9665 16.2165 11.75 15.25 11.75H13.75C12.6454 11.75 11.75 12.6454 11.75 13.75V15.25C11.75 16.2165 10.9665 17 10 17C8.44769 17 7.01339 16.4947 5.85261 15.6396L4.8381 16.6542C4.54521 16.9471 4.07034 16.9471 3.77744 16.6542C3.48629 16.363 3.48456 15.892 3.77227 15.5987C3.77399 15.597 3.77572 15.5953 3.77743 15.5936L15.0301 4.34099C15.0318 4.33925 15.0335 4.33751 15.0352 4.33576C15.3285 4.04799 15.7995 4.0497 16.0907 4.34088C16.3836 4.63377 16.3836 5.10864 16.0907 5.40154L15.6396 5.85261ZM15.25 10.25H13.75C11.817 10.25 10.25 11.817 10.25 13.75V15.25C10.25 15.3881 10.1381 15.5 10 15.5C8.86264 15.5 7.80591 15.1548 6.92888 14.5634L14.5634 6.92888C15.1548 7.80591 15.5 8.86264 15.5 10C15.5 10.1381 15.3881 10.25 15.25 10.25Z" fill="#4A4A4A"/>
<path d="M13.3807 3.86902C12.3785 3.31521 11.2261 3 10 3C6.13401 3 3 6.13401 3 10C3 11.2261 3.31521 12.3785 3.86902 13.3807L4.98598 12.2637C4.67379 11.5733 4.5 10.807 4.5 10C4.5 6.96243 6.96243 4.5 10 4.5C10.807 4.5 11.5733 4.67379 12.2637 4.98598L13.3807 3.86902Z" fill="#4A4A4A"/>
<path d="M10.9746 6.27511C10.8726 5.83112 10.475 5.5 10 5.5C9.44772 5.5 9 5.94772 9 6.5C9 6.97496 9.33112 7.37258 9.77511 7.47461L10.9746 6.27511Z" fill="#4A4A4A"/>
<path d="M8 8C8 8.55228 7.55228 9 7 9C6.44772 9 6 8.55228 6 8C6 7.44772 6.44772 7 7 7C7.55228 7 8 7.44772 8 8Z" fill="#4A4A4A"/>
</svg>

<svg viewBox="0 0 20 20" xmlns="http://www.w3.org/2000/svg"><path fill-rule="evenodd" d="M15.64 5.853a6.968 6.968 0 0 1 1.36 4.147 1.75 1.75 0 0 1-1.75 1.75h-1.5a2 2 0 0 0-2 2v1.5a1.75 1.75 0 0 1-1.75 1.75 6.968 6.968 0 0 1-4.147-1.36l-1.015 1.014a.75.75 0 0 1-1.066-1.055l.005-.005 11.253-11.253.005-.005a.75.75 0 0 1 1.056 1.066l-.451.45Zm-.39 4.397h-1.5a3.5 3.5 0 0 0-3.5 3.5v1.5a.25.25 0 0 1-.25.25 5.474 5.474 0 0 1-3.071-.937l7.634-7.634c.592.877.937 1.934.937 3.071a.25.25 0 0 1-.25.25Z" fill="#5C5F62"/><path d="M13.38 3.869a7 7 0 0 0-9.512 9.512l1.118-1.117a5.5 5.5 0 0 1 7.278-7.278l1.117-1.117Z" fill="#5C5F62"/><path d="M10.975 6.275a1 1 0 1 0-1.2 1.2l1.2-1.2Z" fill="#5C5F62"/><path d="M8 8a1 1 0 1 1-2 0 1 1 0 0 1 2 0Z" fill="#5C5F62"/></svg>
